X: 112
T:Blair Atholle
M:C|
L:1/8
R:Reel
K:Am
E2|"Am"A2 AB AGEG|ABcd edcB|A2 AB AGEF|"G"G2 BG dGBG|!
"Am"A2 AB AGEG|ABcd ecae|"G"gedB GABd|"Am"c2 A2 A2||!
e^g|"Am" a2 ab agec|ABcd ecBA|"G"g2 ga gedB|GABc dB G2|!
"Am"a2 ab agec|ABcd ecae|"G"gecB GABd|"Am"c2 A2 A2:||
% <A name="D1X113">
